raw/symbols/dai.svg

<svg width="42" height="42" viewBox="0 0 42 42" fill="none" xmlns="http://www.w3.org/2000/svg">
<circle cx="21.0002" cy="20.9999" r="18.6667" fill="#F3F3F3"/>
<path d="M21.6598 42C21.2336 42 20.7889 42 20.3628 42C20.3257 41.9815 20.2887 41.9815 20.2516 41.9815C19.1955 41.9445 18.1579 41.8335 17.1203 41.63C15.0081 41.223 12.9885 40.5199 11.08 39.5024C8.72691 38.2443 6.68878 36.5977 4.96563 34.5626C3.00161 32.2315 1.59345 29.5673 0.759667 26.5887C0.444683 25.4601 0.24087 24.3316 0.111171 23.166C0.0741139 22.7405 0.037057 22.315 0.0185285 21.8709C0.0185285 21.7784 0.0185285 21.7044 0.0185285 21.6119C0.0185285 21.5194 0.0370569 21.4084 0 21.3159C0 21.1124 0 20.9089 0 20.7054C0.0185285 20.6684 0.0185285 20.6314 0.0185285 20.5759C0.0185285 20.4279 0.0185285 20.2799 0.0185285 20.1318C0.0185285 20.1133 0.0185285 20.0948 0.0185285 20.0763C0.0555854 19.1883 0.148228 18.3187 0.296456 17.4492C0.667025 15.3031 1.35258 13.2495 2.37164 11.3069C3.98362 8.23571 6.20704 5.71958 9.04189 3.73997C10.728 2.57441 12.5438 1.66786 14.4893 1.03883C16.4533 0.391296 18.4914 0.0582781 20.5666 0.00277515C21.771 -0.0157258 22.9568 0.0582781 24.1426 0.224787C25.7175 0.4653 27.2554 0.872321 28.7377 1.46435C31.9616 2.75942 34.7409 4.70202 36.9828 7.36617C39.9103 10.8073 41.5408 14.7851 41.9299 19.2808C42.0411 20.6499 42.0226 22.0189 41.8558 23.388C41.7076 24.6831 41.4482 25.9411 41.0591 27.1807C39.7806 31.2139 37.5016 34.5811 34.2036 37.2637C32.0542 39.0213 29.627 40.2794 26.9774 41.075C25.4211 41.5375 23.8276 41.815 22.2156 41.9075C22.0489 41.9815 21.8451 41.963 21.6598 42ZM16.2865 9.36427C14.6375 9.36427 13.007 9.36427 11.358 9.36427C11.2838 9.36427 11.2283 9.36427 11.1541 9.36427C11.0615 9.36427 11.0059 9.41977 11.0059 9.51228C11.0059 9.56778 11.0059 9.60478 11.0059 9.66029C11.0059 10.6593 11.0059 11.6399 11.0059 12.6389C11.0059 13.971 11.0059 15.3031 11.0059 16.6167C11.0059 16.9127 10.9874 16.9127 10.7095 16.9127C9.78303 16.9127 8.87514 16.9127 7.94871 16.9127C7.7449 16.9127 7.72637 16.9312 7.72637 17.1347C7.72637 17.8747 7.72637 18.5963 7.72637 19.3363C7.72637 19.3918 7.72637 19.4288 7.72637 19.4843C7.72637 19.5768 7.78196 19.6138 7.85607 19.6138C7.89313 19.6138 7.93018 19.6138 7.96724 19.6138C8.91219 19.6138 9.83862 19.6138 10.7836 19.6138C10.9689 19.6138 10.9874 19.6323 10.9874 19.8173C10.9874 20.6129 10.9874 21.4269 10.9874 22.2225C10.9874 22.463 10.9689 22.5 10.7095 22.5C9.74597 22.5 8.76397 22.5 7.80049 22.5C7.72637 22.5 7.68931 22.5 7.68931 22.5925C7.68931 23.388 7.68931 24.1836 7.68931 24.9791C7.68931 25.1826 7.72637 25.2011 7.93018 25.2011C8.87514 25.2011 9.83862 25.2011 10.7836 25.2011C10.9503 25.2011 10.9689 25.2196 10.9689 25.4046C10.9689 25.4601 10.9689 25.4971 10.9689 25.5526C10.9689 27.8838 10.9689 30.1964 10.9689 32.5275C10.9689 32.6755 10.9689 32.6755 11.1171 32.6755C13.7111 32.6755 16.3051 32.6755 18.9176 32.6755C19.5475 32.6755 20.1775 32.694 20.826 32.6755C22.0859 32.6385 23.3088 32.472 24.5132 32.102C25.9213 31.6765 27.2183 31.0659 28.3856 30.1779C30.0346 28.9198 31.2761 27.3472 32.0172 25.4046C32.0728 25.2751 32.184 25.2011 32.3322 25.2011C33.166 25.2011 33.9997 25.2011 34.8335 25.2011C34.8706 25.2011 34.9076 25.2011 34.9447 25.1826C35.0373 25.1641 35.0929 25.1086 35.1115 25.0161C35.1115 24.9606 35.1115 24.9051 35.1115 24.8681C35.1115 24.4056 35.1115 23.943 35.1115 23.4805C35.1115 23.203 35.0929 22.9255 35.1485 22.648C35.167 22.537 35.13 22.5 35.0188 22.5C34.3703 22.5 33.7218 22.5 33.0733 22.5C32.7954 22.5 32.7769 22.4815 32.7954 22.204C32.851 21.4269 32.851 20.6314 32.7954 19.8543C32.7769 19.6508 32.8139 19.6138 33.0177 19.6138C33.6292 19.6138 34.2591 19.6138 34.8706 19.6138C35.0559 19.6138 35.13 19.5583 35.13 19.3733C35.13 18.6333 35.13 17.8932 35.13 17.1532C35.13 16.9497 35.0929 16.9127 34.8891 16.9127C34.0739 16.9127 33.2401 16.9127 32.4248 16.9127C32.2766 16.9127 32.1284 16.8202 32.0913 16.6722C31.8875 16.0986 31.6281 15.5436 31.2946 15.0256C30.2199 13.2495 28.7747 11.8619 26.9589 10.8814C25.032 9.8453 22.9938 9.34577 20.8075 9.34577C19.3252 9.34577 17.8059 9.36427 16.2865 9.36427Z" fill="#EBBB4D"/>
<path d="M21.4192 17.0063C18.9363 17.0063 16.4535 17.0063 13.9707 17.0063C13.6372 17.0063 13.6372 17.0063 13.6372 16.6732C13.6372 15.1747 13.6372 13.6761 13.6372 12.1775C13.6372 11.8815 13.6557 11.8445 13.9707 11.8445C16.3053 11.8445 18.6214 11.8445 20.956 11.8445C23.2535 11.8445 25.2731 12.566 27.0518 14.0461C27.9227 14.7676 28.6082 15.6372 29.1085 16.6547C29.1455 16.7102 29.1641 16.7842 29.1641 16.8582C29.1455 17.0063 29.1455 17.0063 28.9788 17.0063C26.9962 17.0063 25.0137 17.0063 23.0311 17.0063C22.4753 17.0063 21.9565 17.0063 21.4192 17.0063Z" fill="#EBBB4D"/>
<path d="M21.1412 25.2393C23.4573 25.2393 25.7919 25.2393 28.1079 25.2393C28.4044 25.2393 28.6823 25.2023 28.9788 25.2208C29.1641 25.2208 29.2382 25.2763 29.127 25.4798C29.0344 25.6648 28.9417 25.8498 28.8306 26.0348C28.0153 27.3484 26.9406 28.3844 25.5695 29.106C25.0693 29.365 24.5505 29.6055 24.0132 29.7535C23.4758 29.92 22.9385 30.068 22.3641 30.142C21.8824 30.216 21.4192 30.3085 20.9374 30.3085C18.6028 30.3085 16.2682 30.3085 13.9522 30.3085C13.6372 30.3085 13.6372 30.29 13.6372 29.9755C13.6372 28.5139 13.6372 27.0339 13.6372 25.5723C13.6372 25.4983 13.6372 25.4243 13.6557 25.3503C13.6557 25.2763 13.7113 25.2393 13.7854 25.2393C13.8595 25.2393 13.9337 25.2393 14.0078 25.2393C16.3979 25.2393 18.7696 25.2393 21.1412 25.2393Z" fill="#EBBB4D"/>
<path d="M21.8449 22.5007C19.2138 22.5007 16.6013 22.5007 13.9703 22.5007C13.6553 22.5007 13.6553 22.5007 13.6553 22.1861C13.6553 21.4461 13.6553 20.6876 13.6553 19.9475C13.6553 19.9105 13.6553 19.8735 13.6553 19.8365C13.6738 19.67 13.7294 19.633 13.8776 19.6145C13.9147 19.6145 13.9332 19.6145 13.9703 19.6145C19.2323 19.6145 24.4759 19.6145 29.738 19.6145C29.9974 19.6145 30.0344 19.6515 30.053 19.9105C30.1086 20.7061 30.1086 21.5016 30.0344 22.3156C30.0159 22.4637 29.9789 22.5007 29.8306 22.5192C29.7936 22.5192 29.7565 22.5192 29.7195 22.5192C27.0884 22.5007 24.4574 22.5007 21.8449 22.5007Z" fill="#EBBB4D"/>
</svg>

<svg xmlns="http://www.w3.org/2000/svg" width="42" height="42" fill="none"><circle cx="21" cy="21" r="18.667" fill="#F3F3F3"/><path fill="#EBBB4D" d="M21.66 42h-1.297c-.037-.019-.074-.019-.111-.019a19.787 19.787 0 0 1-3.132-.351 21.365 21.365 0 0 1-6.04-2.128 20.778 20.778 0 0 1-6.114-4.94A21.055 21.055 0 0 1 .019 21.872v-.26c0-.092.018-.203-.019-.295v-.61c.019-.038.019-.075.019-.13v-.5a20.747 20.747 0 0 1 2.353-8.77A20.999 20.999 0 0 1 14.489 1.04 21.147 21.147 0 0 1 20.567.003c1.204-.019 2.39.055 3.576.222a20.84 20.84 0 0 1 4.595 1.24c3.224 1.294 6.003 3.237 8.245 5.901 2.927 3.441 4.558 7.42 4.947 11.915.111 1.369.093 2.738-.074 4.107a20.302 20.302 0 0 1-.797 3.793c-1.278 4.033-3.557 7.4-6.855 10.083-2.15 1.757-4.577 3.015-7.227 3.811-1.556.462-3.15.74-4.761.832-.167.075-.37.056-.556.093ZM16.287 9.364h-5.133c-.092 0-.148.056-.148.148v7.105c0 .296-.019.296-.296.296H7.949c-.204 0-.223.018-.223.222v2.349c0 .093.056.13.13.13H10.784c.185 0 .203.018.203.203v2.405c0 .241-.018.278-.277.278H7.8c-.074 0-.11 0-.11.093v2.386c0 .204.036.222.24.222h2.854c.166 0 .185.019.185.204V32.528c0 .148 0 .148.148.148h7.8c.63 0 1.26.018 1.909 0 1.26-.038 2.483-.204 3.687-.574 1.408-.425 2.705-1.036 3.873-1.924 1.649-1.258 2.89-2.83 3.631-4.773a.325.325 0 0 1 .315-.204h2.502c.037 0 .074 0 .11-.018a.197.197 0 0 0 .167-.167v-1.535c0-.278-.018-.556.038-.833.018-.111-.019-.148-.13-.148h-1.946c-.278 0-.296-.018-.278-.296a16.57 16.57 0 0 0 0-2.35c-.018-.203.019-.24.223-.24h1.853c.185 0 .259-.056.259-.24v-2.22c0-.204-.037-.241-.24-.241h-2.465c-.148 0-.297-.093-.334-.24a7.938 7.938 0 0 0-.796-1.647 11.233 11.233 0 0 0-4.336-4.145c-1.927-1.036-3.965-1.535-6.151-1.535-1.483 0-3.002.018-4.521.018Z"/><path fill="#EBBB4D" d="M21.42 17.006h-7.45c-.333 0-.333 0-.333-.333v-4.495c0-.296.019-.334.334-.334h6.985c2.297 0 4.317.722 6.096 2.202a7.844 7.844 0 0 1 2.056 2.609c.037.055.056.13.056.203-.019.148-.019.148-.185.148H21.419ZM21.141 25.24h6.967c.296 0 .574-.038.87-.02.186 0 .26.056.149.26-.093.185-.185.37-.296.555-.816 1.313-1.89 2.35-3.261 3.071-.5.259-1.02.5-1.557.647-.537.167-1.075.315-1.649.389-.482.074-.945.166-1.427.166h-6.985c-.315 0-.315-.018-.315-.332v-4.404c0-.074 0-.148.019-.222 0-.074.055-.11.13-.11h7.355ZM21.845 22.5H13.97c-.315 0-.315 0-.315-.314v-2.349c.019-.167.074-.204.223-.223H29.738c.26 0 .296.037.315.296.056.796.056 1.592-.019 2.406-.018.148-.055.185-.203.203h-.111c-2.632-.018-5.263-.018-7.875-.018Z"/></svg>
